!!!!SEGMENT: pl-sa--l-1643--102_anonim--kyrie-eleison.krn
!!!cenid: 16xx:1460
!!!COM: Anonim
!!!COM-rismID: pe30004985
!!!CDT:
!!!CNT:
!!!OTL: Kyrie eleison
!!!PDT:
!!!AGN: Sacred
!!!SMS-siglum: PL-SA
!!!SMS-shelfmark: L 1643
!!!SMS-shelfwork: 102 W
!!!SMS-variant:
!!!SMS-altvar:
!!!NIFC-rismSourceID: 1001064395
!!!NIFC-islandoraID:
!!!URL-pdf-islandora:
!!!URL-scan:
!!!ONB-nifc: UWAGA: 8 ksiąg. Primi chori: 1mus Cantus (x), C 2dus (178-182), C 3tius (x), Bassus (x); Secondi chori: Primus Cantus (x), C 2dus (x), Altus (x), Bassus (x). UWAGA: Nie dodawać pustych linii, chyba że w rękopisie pojawiają się dodatkowe oznaczenia dotyczące pełnej obsady (a 4, a 8 itp.)
!!!AIN: 1 empty
!!!key:
**kern	**text	**text	**text	**text	**text	**text	**text	**text	**text	**text	**text	**text	**text	**text	**text
*Iempty	*	*	*	*	*	*	*	*	*	*	*	*	*	*	*
*I"Cantus 2dus Primi Chori	*	*	*	*	*	*	*	*	*	*	*	*	*	*	*
*I'C 2 Ch 1	*	*	*	*	*	*	*	*	*	*	*	*	*	*	*
*clefC1	*	*	*	*	*	*	*	*	*	*	*	*	*	*	*
*k[b-]	*	*	*	*	*	*	*	*	*	*	*	*	*	*	*
*F:	*	*	*	*	*	*	*	*	*	*	*	*	*	*	*
*M2/1	*	*	*	*	*	*	*	*	*	*	*	*	*	*	*
*met(C|)	*	*	*	*	*	*	*	*	*	*	*	*	*	*	*
=1-	=1-	=1-	=1-	=1-	=1-	=1-	=1-	=1-	=1-	=1-	=1-	=1-	=1-	=1-	=1-
1a.	Ki-	.	.	.	.	.	.	.	.	.	.	.	.	.	.
2a\	-ri-	.	.	.	.	.	.	.	.	.	.	.	.	.	.
=2-	=2-	=2-	=2-	=2-	=2-	=2-	=2-	=2-	=2-	=2-	=2-	=2-	=2-	=2-	=2-
1b-	-e	.	.	.	.	.	.	.	.	.	.	.	.	.	.
1cc	e-	.	.	.	.	.	.	.	.	.	.	.	.	.	.
=3-	=3-	=3-	=3-	=3-	=3-	=3-	=3-	=3-	=3-	=3-	=3-	=3-	=3-	=3-	=3-
0g	-leÿ-	.	.	.	.	.	.	.	.	.	.	.	.	.	.
=4-	=4-	=4-	=4-	=4-	=4-	=4-	=4-	=4-	=4-	=4-	=4-	=4-	=4-	=4-	=4-
!LO:TX:t=P:problem=kreska pseudotaktowa	!	!	!	!	!	!	!	!	!	!	!	!	!	!	!
1a	-ſon,	.	.	.	.	.	.	.	.	.	.	.	.	.	.
1a	chri-	.	.	.	.	.	.	.	.	.	.	.	.	.	.
=5-	=5-	=5-	=5-	=5-	=5-	=5-	=5-	=5-	=5-	=5-	=5-	=5-	=5-	=5-	=5-
2b-\	-ſte	.	.	.	.	.	.	.	.	.	.	.	.	.	.
2cc.\	e-	.	.	.	.	.	.	.	.	.	.	.	.	.	.
!LO:SIC:v:s=8bn\L	!	!	!	!	!	!	!	!	!	!	!	!	!	!	!
8b-\L	.	.	.	.	.	.	.	.	.	.	.	.	.	.	.
8a\J	.	.	.	.	.	.	.	.	.	.	.	.	.	.	.
!LO:TX:t=P:problem=# below	!	!	!	!	!	!	!	!	!	!	!	!	!	!	!
!LO:N:acc=#	!	!	!	!	!	!	!	!	!	!	!	!	!	!	!
2bn\	-l[eÿ]-	.	.	.	.	.	.	.	.	.	.	.	.	.	.
=6-	=6-	=6-	=6-	=6-	=6-	=6-	=6-	=6-	=6-	=6-	=6-	=6-	=6-	=6-	=6-
1cc	-ſon	.	.	.	.	.	.	.	.	.	.	.	.	.	.
1r	.	.	.	.	.	.	.	.	.	.	.	.	.	.	.
=7-	=7-	=7-	=7-	=7-	=7-	=7-	=7-	=7-	=7-	=7-	=7-	=7-	=7-	=7-	=7-
2r	.	.	.	.	.	.	.	.	.	.	.	.	.	.	.
2g/	chri-	.	.	.	.	.	.	.	.	.	.	.	.	.	.
2a\	-ſte	.	.	.	.	.	.	.	.	.	.	.	.	.	.
2cc\	e-	.	.	.	.	.	.	.	.	.	.	.	.	.	.
=8-	=8-	=8-	=8-	=8-	=8-	=8-	=8-	=8-	=8-	=8-	=8-	=8-	=8-	=8-	=8-
1cc	-leÿ-	.	.	.	.	.	.	.	.	.	.	.	.	.	.
1cc	-ſon	.	.	.	.	.	.	.	.	.	.	.	.	.	.
=9-	=9-	=9-	=9-	=9-	=9-	=9-	=9-	=9-	=9-	=9-	=9-	=9-	=9-	=9-	=9-
2r	.	.	.	.	.	.	.	.	.	.	.	.	.	.	.
*custos:cc	*	*	*	*	*	*	*	*	*	*	*	*	*	*	*
2cc\	chrÿ-	.	.	.	.	.	.	.	.	.	.	.	.	.	.
*lig	*	*	*	*	*	*	*	*	*	*	*	*	*	*	*
!LO:LB:g=original	!	!	!	!	!	!	!	!	!	!	!	!	!	!	!
1cc	-ſte	.	.	.	.	.	.	.	.	.	.	.	.	.	.
=10-	=10-	=10-	=10-	=10-	=10-	=10-	=10-	=10-	=10-	=10-	=10-	=10-	=10-	=10-	=10-
1b-	.	.	.	.	.	.	.	.	.	.	.	.	.	.	.
*Xlig	*	*	*	*	*	*	*	*	*	*	*	*	*	*	*
2.a\	e-	.	.	.	.	.	.	.	.	.	.	.	.	.	.
4b-\	.	.	.	.	.	.	.	.	.	.	.	.	.	.	.
=11-	=11-	=11-	=11-	=11-	=11-	=11-	=11-	=11-	=11-	=11-	=11-	=11-	=11-	=11-	=11-
1cc.	-leÿ-	.	.	.	.	.	.	.	.	.	.	.	.	.	.
2g/	.	.	.	.	.	.	.	.	.	.	.	.	.	.	.
=12-	=12-	=12-	=12-	=12-	=12-	=12-	=12-	=12-	=12-	=12-	=12-	=12-	=12-	=12-	=12-
!LO:TX:t=P:problem=kreska pseudotaktowa	!	!	!	!	!	!	!	!	!	!	!	!	!	!	!
1a	-ſon	.	.	.	.	.	.	.	.	.	.	.	.	.	.
1.cc	Ki-	.	.	.	.	.	.	.	.	.	.	.	.	.	.
=13-	=13-	=13-	=13-	=13-	=13-	=13-	=13-	=13-	=13-	=13-	=13-	=13-	=13-	=13-	=13-
.	.	.	.	.	.	.	.	.	.	.	.	.	.	.	.
2cc\	-ri-	.	.	.	.	.	.	.	.	.	.	.	.	.	.
1cc	-e	.	.	.	.	.	.	.	.	.	.	.	.	.	.
=14-	=14-	=14-	=14-	=14-	=14-	=14-	=14-	=14-	=14-	=14-	=14-	=14-	=14-	=14-	=14-
1b-	e-	.	.	.	.	.	.	.	.	.	.	.	.	.	.
1.cc	-leÿ-	.	.	.	.	.	.	.	.	.	.	.	.	.	.
=15-	=15-	=15-	=15-	=15-	=15-	=15-	=15-	=15-	=15-	=15-	=15-	=15-	=15-	=15-	=15-
.	.	.	.	.	.	.	.	.	.	.	.	.	.	.	.
2g/	.	.	.	.	.	.	.	.	.	.	.	.	.	.	.
!LO:TX:t=P:problem=kreska pseudotaktowa	!	!	!	!	!	!	!	!	!	!	!	!	!	!	!
1a	-ſon	.	.	.	.	.	.	.	.	.	.	.	.	.	.
=16-	=16-	=16-	=16-	=16-	=16-	=16-	=16-	=16-	=16-	=16-	=16-	=16-	=16-	=16-	=16-
1a	C[h]ri-	.	.	.	.	.	.	.	.	.	.	.	.	.	.
1cc	-ſte	.	.	.	.	.	.	.	.	.	.	.	.	.	.
=17-	=17-	=17-	=17-	=17-	=17-	=17-	=17-	=17-	=17-	=17-	=17-	=17-	=17-	=17-	=17-
2b-\	.	.	.	.	.	.	.	.	.	.	.	.	.	.	.
2cc\	ex-	.	.	.	.	.	.	.	.	.	.	.	.	.	.
2b-\	-au-	.	.	.	.	.	.	.	.	.	.	.	.	.	.
2g/	-di	.	.	.	.	.	.	.	.	.	.	.	.	.	.
=18-	=18-	=18-	=18-	=18-	=18-	=18-	=18-	=18-	=18-	=18-	=18-	=18-	=18-	=18-	=18-
*custos:cc	*	*	*	*	*	*	*	*	*	*	*	*	*	*	*
!LO:TX:t=P:problem=kreska pseudotaktowa	!	!	!	!	!	!	!	!	!	!	!	!	!	!	!
!LO:TX:a:t=Cho\nrus	!	!	!	!	!	!	!	!	!	!	!	!	!	!	!
1a;<	nos	.	.	.	.	.	.	.	.	.	.	.	.	.	.
!LO:LB:g=original	!	!	!	!	!	!	!	!	!	!	!	!	!	!	!
2cc\	Mi-	.	.	.	.	.	.	.	.	.	.	.	.	.	.
2cc\	-ſe-	.	.	.	.	.	.	.	.	.	.	.	.	.	.
=19-	=19-	=19-	=19-	=19-	=19-	=19-	=19-	=19-	=19-	=19-	=19-	=19-	=19-	=19-	=19-
2a\	-re-	.	.	.	.	.	.	.	.	.	.	.	.	.	.
4b-\	-[re]	.	.	.	.	.	.	.	.	.	.	.	.	.	.
4a\	.	.	.	.	.	.	.	.	.	.	.	.	.	.	.
4g\	.	.	.	.	.	.	.	.	.	.	.	.	.	.	.
4f\	.	.	.	.	.	.	.	.	.	.	.	.	.	.	.
2g/	no-	.	.	.	.	.	.	.	.	.	.	.	.	.	.
=20-	=20-	=20-	=20-	=20-	=20-	=20-	=20-	=20-	=20-	=20-	=20-	=20-	=20-	=20-	=20-
!LO:TX:t=P:problem=kreska pseudotaktowa	!	!	!	!	!	!	!	!	!	!	!	!	!	!	!
!LO:TX:a:t=Cho\nrus	!	!	!	!	!	!	!	!	!	!	!	!	!	!	!
1a;<	-bis	.	.	.	.	.	.	.	.	.	.	.	.	.	.
2g/	Mi-	.	.	.	.	.	.	.	.	.	.	.	.	.	.
2cc\	-ſe-	.	.	.	.	.	.	.	.	.	.	.	.	.	.
=21-	=21-	=21-	=21-	=21-	=21-	=21-	=21-	=21-	=21-	=21-	=21-	=21-	=21-	=21-	=21-
2a\	-re-	.	.	.	.	.	.	.	.	.	.	.	.	.	.
2g/	-re	.	.	.	.	.	.	.	.	.	.	.	.	.	.
2.a\	no-	.	.	.	.	.	.	.	.	.	.	.	.	.	.
4b-\	.	.	.	.	.	.	.	.	.	.	.	.	.	.	.
=22-	=22-	=22-	=22-	=22-	=22-	=22-	=22-	=22-	=22-	=22-	=22-	=22-	=22-	=22-	=22-
1cc	-bis	.	.	.	.	.	.	.	.	.	.	.	.	.	.
!LO:TX:a:t=Chorus	!	!	!	!	!	!	!	!	!	!	!	!	!	!	!
2g/	Mi-	.	.	.	.	.	.	.	.	.	.	.	.	.	.
2a\	-ſe-	.	.	.	.	.	.	.	.	.	.	.	.	.	.
=23-	=23-	=23-	=23-	=23-	=23-	=23-	=23-	=23-	=23-	=23-	=23-	=23-	=23-	=23-	=23-
2dd\	-re-	.	.	.	.	.	.	.	.	.	.	.	.	.	.
2cc\	-re	.	.	.	.	.	.	.	.	.	.	.	.	.	.
*custos:cc	*	*	*	*	*	*	*	*	*	*	*	*	*	*	*
1cc	no-	.	.	.	.	.	.	.	.	.	.	.	.	.	.
=24-	=24-	=24-	=24-	=24-	=24-	=24-	=24-	=24-	=24-	=24-	=24-	=24-	=24-	=24-	=24-
!LO:LB:g=original	!	!	!	!	!	!	!	!	!	!	!	!	!	!	!
!LO:TX:t=P:problem=kreska pseudotaktowa	!	!	!	!	!	!	!	!	!	!	!	!	!	!	!
1cc;<	-bis	.	.	.	.	.	.	.	.	.	.	.	.	.	.
1.cc	San-	.	.	.	.	.	.	.	.	.	.	.	.	.	.
=25-	=25-	=25-	=25-	=25-	=25-	=25-	=25-	=25-	=25-	=25-	=25-	=25-	=25-	=25-	=25-
.	.	.	.	.	.	.	.	.	.	.	.	.	.	.	.
2a\	-cta	.	.	.	.	.	.	.	.	.	.	.	.	.	.
2.b-\	[tri]-	.	.	.	.	.	.	.	.	.	.	.	.	.	.
4cc\	.	.	.	.	.	.	.	.	.	.	.	.	.	.	.
=26-	=26-	=26-	=26-	=26-	=26-	=26-	=26-	=26-	=26-	=26-	=26-	=26-	=26-	=26-	=26-
2dd\	.	.	.	.	.	.	.	.	.	.	.	.	.	.	.
2b-\	-ni-	.	.	.	.	.	.	.	.	.	.	.	.	.	.
2cc\	-tas	.	.	.	.	.	.	.	.	.	.	.	.	.	.
1cc\	v-	.	.	.	.	.	.	.	.	.	.	.	.	.	.
=27-	=27-	=27-	=27-	=27-	=27-	=27-	=27-	=27-	=27-	=27-	=27-	=27-	=27-	=27-	=27-
.	.	.	.	.	.	.	.	.	.	.	.	.	.	.	.
2cc\	-nus	.	.	.	.	.	.	.	.	.	.	.	.	.	.
1b-	de-	.	.	.	.	.	.	.	.	.	.	.	.	.	.
=28-	=28-	=28-	=28-	=28-	=28-	=28-	=28-	=28-	=28-	=28-	=28-	=28-	=28-	=28-	=28-
1cc	-us,	.	.	.	.	.	.	.	.	.	.	.	.	.	.
1.cc	Mi-	.	.	.	.	.	.	.	.	.	.	.	.	.	.
=29-	=29-	=29-	=29-	=29-	=29-	=29-	=29-	=29-	=29-	=29-	=29-	=29-	=29-	=29-	=29-
.	.	.	.	.	.	.	.	.	.	.	.	.	.	.	.
2a\	-ſe-	.	.	.	.	.	.	.	.	.	.	.	.	.	.
2b-\	-re-	.	.	.	.	.	.	.	.	.	.	.	.	.	.
2cc\	-re	.	.	.	.	.	.	.	.	.	.	.	.	.	.
=30-	=30-	=30-	=30-	=30-	=30-	=30-	=30-	=30-	=30-	=30-	=30-	=30-	=30-	=30-	=30-
1cc	no-	.	.	.	.	.	.	.	.	.	.	.	.	.	.
1a	-bis,	.	.	.	.	.	.	.	.	.	.	.	.	.	.
=31-	=31-	=31-	=31-	=31-	=31-	=31-	=31-	=31-	=31-	=31-	=31-	=31-	=31-	=31-	=31-
00r	.	.	.	.	.	.	.	.	.	.	.	.	.	.	.
.	.	.	.	.	.	.	.	.	.	.	.	.	.	.	.
=32-	=32-	=32-	=32-	=32-	=32-	=32-	=32-	=32-	=32-	=32-	=32-	=32-	=32-	=32-	=32-
.	.	.	.	.	.	.	.	.	.	.	.	.	.	.	.
.	.	.	.	.	.	.	.	.	.	.	.	.	.	.	.
=33-	=33-	=33-	=33-	=33-	=33-	=33-	=33-	=33-	=33-	=33-	=33-	=33-	=33-	=33-	=33-
1a	O-	.	.	.	.	.	.	.	.	.	.	.	.	.	.
2b-\	-ra	.	.	.	.	.	.	.	.	.	.	.	.	.	.
4a\	pro	.	.	.	.	.	.	.	.	.	.	.	.	.	.
4b-\	.	.	.	.	.	.	.	.	.	.	.	.	.	.	.
=34-	=34-	=34-	=34-	=34-	=34-	=34-	=34-	=34-	=34-	=34-	=34-	=34-	=34-	=34-	=34-
*custos:cc	*	*	*	*	*	*	*	*	*	*	*	*	*	*	*
1cc	no-	.	.	.	.	.	.	.	.	.	.	.	.	.	.
!LO:LB:g=original	!	!	!	!	!	!	!	!	!	!	!	!	!	!	!
1cc	-bis,	.	.	.	.	.	.	.	.	.	.	.	.	.	.
=35-	=35-	=35-	=35-	=35-	=35-	=35-	=35-	=35-	=35-	=35-	=35-	=35-	=35-	=35-	=35-
00r	.	.	.	.	.	.	.	.	.	.	.	.	.	.	.
.	.	.	.	.	.	.	.	.	.	.	.	.	.	.	.
=36-	=36-	=36-	=36-	=36-	=36-	=36-	=36-	=36-	=36-	=36-	=36-	=36-	=36-	=36-	=36-
.	.	.	.	.	.	.	.	.	.	.	.	.	.	.	.
.	.	.	.	.	.	.	.	.	.	.	.	.	.	.	.
=37-	=37-	=37-	=37-	=37-	=37-	=37-	=37-	=37-	=37-	=37-	=37-	=37-	=37-	=37-	=37-
1a	O-	.	.	.	.	.	.	.	.	.	.	.	.	.	.
2b-\	-ra	.	.	.	.	.	.	.	.	.	.	.	.	.	.
2.cc\	pro	.	.	.	.	.	.	.	.	.	.	.	.	.	.
=38-	=38-	=38-	=38-	=38-	=38-	=38-	=38-	=38-	=38-	=38-	=38-	=38-	=38-	=38-	=38-
.	.	.	.	.	.	.	.	.	.	.	.	.	.	.	.
!LO:SIC:v:s=8bn\L	!	!	!	!	!	!	!	!	!	!	!	!	!	!	!
8b-\L	.	.	.	.	.	.	.	.	.	.	.	.	.	.	.
8a\J	.	.	.	.	.	.	.	.	.	.	.	.	.	.	.
!LO:TX:t=P:problem=# below	!	!	!	!	!	!	!	!	!	!	!	!	!	!	!
!LO:N:acc=#	!	!	!	!	!	!	!	!	!	!	!	!	!	!	!
2bn\	no-	.	.	.	.	.	.	.	.	.	.	.	.	.	.
1cc	-bis	.	.	.	.	.	.	.	.	.	.	.	.	.	.
=39-	=39-	=39-	=39-	=39-	=39-	=39-	=39-	=39-	=39-	=39-	=39-	=39-	=39-	=39-	=39-
!LO:TX:a:t=Chorus	!	!	!	!	!	!	!	!	!	!	!	!	!	!	!
1a	O-	.	.	.	.	.	.	.	.	.	.	.	.	.	.
2b-\	-ra	.	.	.	.	.	.	.	.	.	.	.	.	.	.
1cc\	pro	.	.	.	.	.	.	.	.	.	.	.	.	.	.
=40-	=40-	=40-	=40-	=40-	=40-	=40-	=40-	=40-	=40-	=40-	=40-	=40-	=40-	=40-	=40-
.	.	.	.	.	.	.	.	.	.	.	.	.	.	.	.
!LO:TX:t=P:problem=# below	!	!	!	!	!	!	!	!	!	!	!	!	!	!	!
!LO:N:acc=#	!	!	!	!	!	!	!	!	!	!	!	!	!	!	!
2bn\	no-	.	.	.	.	.	.	.	.	.	.	.	.	.	.
!LO:TX:t=P:problem=kreska pseudotaktowa	!	!	!	!	!	!	!	!	!	!	!	!	!	!	!
1cc;<	-bis	.	.	.	.	.	.	.	.	.	.	.	.	.	.
=41-	=41-	=41-	=41-	=41-	=41-	=41-	=41-	=41-	=41-	=41-	=41-	=41-	=41-	=41-	=41-
1a	San-	.	.	.	.	.	.	.	.	.	.	.	.	.	.
a	-cte	.	.	.	.	.	.	.	.	.	.	.	.	.	.
a	Pa-	.	.	.	.	.	.	.	.	.	.	.	.	.	.
a	-ter	.	.	.	.	.	.	.	.	.	.	.	.	.	.
a	Be-	.	.	.	.	.	.	.	.	.	.	.	.	.	.
a	-ne-	.	.	.	.	.	.	.	.	.	.	.	.	.	.
a	-dic-	.	.	.	.	.	.	.	.	.	.	.	.	.	.
*custos:A	*	*	*	*	*	*	*	*	*	*	*	*	*	*	*
!LO:SIC:v:l:t=custos "au"	!	!	!	!	!	!	!	!	!	!	!	!	!	!	!
a	-te	.	.	.	.	.	.	.	.	.	.	.	.	.	.
=42-	=42-	=42-	=42-	=42-	=42-	=42-	=42-	=42-	=42-	=42-	=42-	=42-	=42-	=42-	=42-
!LO:PB:g=original	!	!	!	!	!	!	!	!	!	!	!	!	!	!	!
f	au-	.	.	.	.	.	.	.	.	.	.	.	.	.	.
a	.	.	.	.	.	.	.	.	.	.	.	.	.	.	.
a	-ctor	.	.	.	.	.	.	.	.	.	.	.	.	.	.
a	no-	.	.	.	.	.	.	.	.	.	.	.	.	.	.
a	-ſtre	.	.	.	.	.	.	.	.	.	.	.	.	.	.
=43-	=43-	=43-	=43-	=43-	=43-	=43-	=43-	=43-	=43-	=43-	=43-	=43-	=43-	=43-	=43-
1a	re-	.	.	.	.	.	.	.	.	.	.	.	.	.	.
2b-\	-li-	.	.	.	.	.	.	.	.	.	.	.	.	.	.
2a\	-gi-	.	.	.	.	.	.	.	.	.	.	.	.	.	.
=44-	=44-	=44-	=44-	=44-	=44-	=44-	=44-	=44-	=44-	=44-	=44-	=44-	=44-	=44-	=44-
1g	-o-	.	.	.	.	.	.	.	.	.	.	.	.	.	.
2a\	-nis	.	.	.	.	.	.	.	.	.	.	.	.	.	.
2a\	[O]-	.	.	.	.	.	.	.	.	.	.	.	.	.	.
=45-	=45-	=45-	=45-	=45-	=45-	=45-	=45-	=45-	=45-	=45-	=45-	=45-	=45-	=45-	=45-
2b-\	-ra	.	.	.	.	.	.	.	.	.	.	.	.	.	.
2a\	pro	.	.	.	.	.	.	.	.	.	.	.	.	.	.
1g	no-	.	.	.	.	.	.	.	.	.	.	.	.	.	.
=46-	=46-	=46-	=46-	=46-	=46-	=46-	=46-	=46-	=46-	=46-	=46-	=46-	=46-	=46-	=46-
!LO:TX:t=P:problem=kreska pseudotaktowa	!	!	!	!	!	!	!	!	!	!	!	!	!	!	!
1a	-bis,	.	.	.	.	.	.	.	.	.	.	.	.	.	.
=47-	=47-	=47-	=47-	=47-	=47-	=47-	=47-	=47-	=47-	=47-	=47-	=47-	=47-	=47-	=47-
1a	S[ancte] P[ater] B[enedicte] inſtaurator	S[ancte] P[ater] B[enedicte]	S[ancte] P[ater] B[enedicte] ſpecu-	S[ancte] P[ater] B[enedicte] ſtel-	S[ancte] P[ater] B[enedicte] decus eccle-	S[ancte] P[ater] B[enedicte] re-	S[ancte] P[ater] B[enedicte]	S[ancte] P[ater] B[enedicte] magiſter	S[ancte] P[ater] B[enedicte] magiſ-	S[ancte] P[ater] B[enedicte] exem-	S[ancte] P[ater] B[enedicte] nor-	S[ancte] P[ater] B[enedicte] praeceptor	S[ancte] P[ater] B[enedicte]	S[ancte] P[ater] B[enedicte] flos re-	S[ancte] P[ater] B[enedicte]
a	.	.	.	.	.	.	.	.	.	.	.	.	.	.	.
a	.	.	.	.	.	.	.	.	.	.	.	.	.	.	.
a	.	.	.	.	.	.	.	.	.	.	.	.	.	.	.
a	.	.	.	.	.	.	.	.	.	.	.	.	.	.	.
=48-	=48-	=48-	=48-	=48-	=48-	=48-	=48-	=48-	=48-	=48-	=48-	=48-	=48-	=48-	=48-
1a	ui-	doc-	-lum	-la	-si-	-gu-	flos	o-	-ter	-plum	-ma	ta-	flos	-li-	flos
2b-\	-te	-tor	per-	re-	-ae	-la	caſ-	-be-	diſ-	hu-	ab-	-ci-	pi-	-gi-	ſan-
2cc\	mo-	dis-	-fec-	-li-	ca-	pau-	-ti-	-di-	-cre-	-mi-	-ſti-	-tur-	-e-	-o-	-cti-
=49-	=49-	=49-	=49-	=49-	=49-	=49-	=49-	=49-	=49-	=49-	=49-	=49-	=49-	=49-	=49-
2b-\	-naſ-	-ci-	-ti-	-gi-	-tho-	-per-	-ta-	-en-	-ti-	-li-	-nen-	-ni-	-ta-	-si-	-ta-
2g/	-ti-	-pli-	-o-	-o-	-li-	-ta-	.	-ti-	-o-	-ta-	-ti-	-ta-	.	-ta-	.
1a	-ce	-ne	-nis	-nis	-cae	-tis	-tis	-ae	-nis	-tis	-ae	-tis	-tis	-tis	-tis
=50-	=50-	=50-	=50-	=50-	=50-	=50-	=50-	=50-	=50-	=50-	=50-	=50-	=50-	=50-	=50-
*custos:a	*	*	*	*	*	*	*	*	*	*	*	*	*	*	*
00r	.	.	.	.	.	.	.	.	.	.	.	.	.	.	.
.	.	.	.	.	.	.	.	.	.	.	.	.	.	.	.
=51-	=51-	=51-	=51-	=51-	=51-	=51-	=51-	=51-	=51-	=51-	=51-	=51-	=51-	=51-	=51-
.	.	.	.	.	.	.	.	.	.	.	.	.	.	.	.
.	.	.	.	.	.	.	.	.	.	.	.	.	.	.	.
=52-	=52-	=52-	=52-	=52-	=52-	=52-	=52-	=52-	=52-	=52-	=52-	=52-	=52-	=52-	=52-
!LO:LB:g=original	!	!	!	!	!	!	!	!	!	!	!	!	!	!	!
1a	S[ancte] P[ater] B[enedicte] decor tocius	.	.	.	.	.	.	.	.	.	.	.	.	.	.
a	.	.	.	.	.	.	.	.	.	.	.	.	.	.	.
a	.	.	.	.	.	.	.	.	.	.	.	.	.	.	.
a	.	.	.	.	.	.	.	.	.	.	.	.	.	.	.
a	.	.	.	.	.	.	.	.	.	.	.	.	.	.	.
=53-	=53-	=53-	=53-	=53-	=53-	=53-	=53-	=53-	=53-	=53-	=53-	=53-	=53-	=53-	=53-
2b-\	ho-	.	.	.	.	.	.	.	.	.	.	.	.	.	.
2a\	-neſ-	.	.	.	.	.	.	.	.	.	.	.	.	.	.
1b-\	-ta-	.	.	.	.	.	.	.	.	.	.	.	.	.	.
=54-	=54-	=54-	=54-	=54-	=54-	=54-	=54-	=54-	=54-	=54-	=54-	=54-	=54-	=54-	=54-
2cc\	-tis	.	.	.	.	.	.	.	.	.	.	.	.	.	.
2cc\	O-	.	.	.	.	.	.	.	.	.	.	.	.	.	.
2a\	-ra	.	.	.	.	.	.	.	.	.	.	.	.	.	.
2cc\	pro	.	.	.	.	.	.	.	.	.	.	.	.	.	.
=55-	=55-	=55-	=55-	=55-	=55-	=55-	=55-	=55-	=55-	=55-	=55-	=55-	=55-	=55-	=55-
1dd	no-	.	.	.	.	.	.	.	.	.	.	.	.	.	.
!LO:TX:t=P:problem=kreska pseudotaktowa	!	!	!	!	!	!	!	!	!	!	!	!	!	!	!
1cc;<	bis,	.	.	.	.	.	.	.	.	.	.	.	.	.	.
=56-	=56-	=56-	=56-	=56-	=56-	=56-	=56-	=56-	=56-	=56-	=56-	=56-	=56-	=56-	=56-
!LO:TX:t=Cho\nrus	!	!	!	!	!	!	!	!	!	!	!	!	!	!	!
1cc	O-	.	.	.	.	.	.	.	.	.	.	.	.	.	.
2cc\	-ra	.	.	.	.	.	.	.	.	.	.	.	.	.	.
2.cc\	pro	.	.	.	.	.	.	.	.	.	.	.	.	.	.
=57-	=57-	=57-	=57-	=57-	=57-	=57-	=57-	=57-	=57-	=57-	=57-	=57-	=57-	=57-	=57-
.	.	.	.	.	.	.	.	.	.	.	.	.	.	.	.
!LO:SIC:v:s=8bn\L	!	!	!	!	!	!	!	!	!	!	!	!	!	!	!
8b-\L	.	.	.	.	.	.	.	.	.	.	.	.	.	.	.
8a\J	.	.	.	.	.	.	.	.	.	.	.	.	.	.	.
!LO:TX:t=P:problem=# below	!	!	!	!	!	!	!	!	!	!	!	!	!	!	!
!LO:N:acc=#	!	!	!	!	!	!	!	!	!	!	!	!	!	!	!
2bn\	no-	.	.	.	.	.	.	.	.	.	.	.	.	.	.
*custos:a	*	*	*	*	*	*	*	*	*	*	*	*	*	*	*
1cc	-bis	.	.	.	.	.	.	.	.	.	.	.	.	.	.
=58-	=58-	=58-	=58-	=58-	=58-	=58-	=58-	=58-	=58-	=58-	=58-	=58-	=58-	=58-	=58-
!LO:PB:g=original	!	!	!	!	!	!	!	!	!	!	!	!	!	!	!
1a	Sancte Pater Benedicte patriar-	.	.	.	.	.	.	.	.	.	.	.	.	.	.
a	.	.	.	.	.	.	.	.	.	.	.	.	.	.	.
a	.	.	.	.	.	.	.	.	.	.	.	.	.	.	.
a	.	.	.	.	.	.	.	.	.	.	.	.	.	.	.
1a	-cha	.	.	.	.	.	.	.	.	.	.	.	.	.	.
=59-	=59-	=59-	=59-	=59-	=59-	=59-	=59-	=59-	=59-	=59-	=59-	=59-	=59-	=59-	=59-
2cc\	mo-	.	.	.	.	.	.	.	.	.	.	.	.	.	.
2g/	-na-	.	.	.	.	.	.	.	.	.	.	.	.	.	.
1g	-cho-	.	.	.	.	.	.	.	.	.	.	.	.	.	.
=60-	=60-	=60-	=60-	=60-	=60-	=60-	=60-	=60-	=60-	=60-	=60-	=60-	=60-	=60-	=60-
!LO:TX:t=P:problem=oddech/cezura na różnej wysokości	!	!	!	!	!	!	!	!	!	!	!	!	!	!	!
2g/,	-rum	.	.	.	.	.	.	.	.	.	.	.	.	.	.
2g/	O-	.	.	.	.	.	.	.	.	.	.	.	.	.	.
2g/	-ra	.	.	.	.	.	.	.	.	.	.	.	.	.	.
2g/	pro	.	.	.	.	.	.	.	.	.	.	.	.	.	.
=61-	=61-	=61-	=61-	=61-	=61-	=61-	=61-	=61-	=61-	=61-	=61-	=61-	=61-	=61-	=61-
1a	no-	.	.	.	.	.	.	.	.	.	.	.	.	.	.
!LO:TX:t=P:problem=kreska pseudotaktowa	!	!	!	!	!	!	!	!	!	!	!	!	!	!	!
1g;<	-bis	.	.	.	.	.	.	.	.	.	.	.	.	.	.
=62-	=62-	=62-	=62-	=62-	=62-	=62-	=62-	=62-	=62-	=62-	=62-	=62-	=62-	=62-	=62-
1a	S[ancte] P[ater] B[enedicte] pater tuoru(m)	S[ancte] P[ater] B[enedicte] [re]ſuscitator	S[ancte] P[ater] B[enedicte] op[e]rator mi-	S[ancte] P[ater] B[enedicte] ass[ec]la pa-	S[ancte] P[ater] B[enedicte] comp[ar]	S[ancte] P[ater] B[enedicte] secta[t]or a-	S[ancte] P[ater] B[enedicte] simi-	S[ancte] P[ater] B[enedicte] g[e]m-	S[ancte] P[ater] B[enedicte] anachoretarum	S[ancte] P[ater] B[enedicte] gloria	S[ancte] P[ater] B[enedicte] con-	.	.	.	.
a	.	.	.	.	.	.	.	.	.	.	.	.	.	.	.
a	.	.	.	.	.	.	.	.	.	.	.	.	.	.	.
a	.	.	.	.	.	.	.	.	.	.	.	.	.	.	.
a	.	.	.	.	.	.	.	.	.	.	.	.	.	.	.
a	.	.	.	.	.	.	.	.	.	.	.	.	.	.	.
2g/	de-	mor-	-ra-	-tri-	pro-	-po-	[li]s	ma	i-	con-	sors	.	.	.	.
2a\	-uo-	-tu-	-cu-	-ar-	-fe-	-ſto-	mar-	ab-	-mi-	-feſ-	vir-	.	.	.	.
=63-	=63-	=63-	=63-	=63-	=63-	=63-	=63-	=63-	=63-	=63-	=63-	=63-	=63-	=63-	=63-
2.f/	-to-	-o-	-lo-	-cha-	-ta-	-lo-	-ti-	-ba-	-ta-	-so-	-gi-	.	.	.	.
4g/	.	.	.	.	.	.	.	.	.	.	.	.	.	.	.
1a	-rum	-rum	-rum	-rum	-rum	-rum	-rum	-tum	-tor	-rum	-num	.	.	.	.
=64-	=64-	=64-	=64-	=64-	=64-	=64-	=64-	=64-	=64-	=64-	=64-	=64-	=64-	=64-	=64-
*custos:a	*	*	*	*	*	*	*	*	*	*	*	*	*	*	*
00r	.	.	.	.	.	.	.	.	.	.	.	.	.	.	.
.	.	.	.	.	.	.	.	.	.	.	.	.	.	.	.
=65-	=65-	=65-	=65-	=65-	=65-	=65-	=65-	=65-	=65-	=65-	=65-	=65-	=65-	=65-	=65-
.	.	.	.	.	.	.	.	.	.	.	.	.	.	.	.
.	.	.	.	.	.	.	.	.	.	.	.	.	.	.	.
=66-	=66-	=66-	=66-	=66-	=66-	=66-	=66-	=66-	=66-	=66-	=66-	=66-	=66-	=66-	=66-
!LO:LB:g=original	!	!	!	!	!	!	!	!	!	!	!	!	!	!	!
1a	S[an-	S[an-	S[an-	S[an-	.	.	.	.	.	.	.	.	.	.	.
1a	-cte]	-cte]	-cte]	-cte]	.	.	.	.	.	.	.	.	.	.	.
=67-	=67-	=67-	=67-	=67-	=67-	=67-	=67-	=67-	=67-	=67-	=67-	=67-	=67-	=67-	=67-
1a	P[ater] B[enedicte] collega	P[ater] B[enedicte] victor & triumpha-	P[ater] B[enedicte] victor &	P[ater] B[enedicte] victor & tri-	.	.	.	.	.	.	.	.	.	.	.
a	.	.	.	.	.	.	.	.	.	.	.	.	.	.	.
a	.	.	.	.	.	.	.	.	.	.	.	.	.	.	.
a	.	.	.	.	.	.	.	.	.	.	.	.	.	.	.
2.a\	ſan-	-tor	tri-	-um-	.	.	.	.	.	.	.	.	.	.	.
4b-\	.	.	.	.	.	.	.	.	.	.	.	.	.	.	.
=68-	=68-	=68-	=68-	=68-	=68-	=68-	=68-	=68-	=68-	=68-	=68-	=68-	=68-	=68-	=68-
2cc\	-[c]to-	ten-	-um-	-pha-	.	.	.	.	.	.	.	.	.	.	.
2a\	-rum	-ta-	-pha-	-tor	.	.	.	.	.	.	.	.	.	.	.
2.b-\	om-	-ti-	-tor	de-	.	.	.	.	.	.	.	.	.	.	.
4b-\	-ni-	-o-	mun-	-mo-	.	.	.	.	.	.	.	.	.	.	.
=69-	=69-	=69-	=69-	=69-	=69-	=69-	=69-	=69-	=69-	=69-	=69-	=69-	=69-	=69-	=69-
2a\,	-um,	-num	-di	-num	.	.	.	.	.	.	.	.	.	.	.
2a\	O-	.	.	.	.	.	.	.	.	.	.	.	.	.	.
2b-\	-ra	.	.	.	.	.	.	.	.	.	.	.	.	.	.
2a\	pro	.	.	.	.	.	.	.	.	.	.	.	.	.	.
=70-	=70-	=70-	=70-	=70-	=70-	=70-	=70-	=70-	=70-	=70-	=70-	=70-	=70-	=70-	=70-
1g	no-	.	.	.	.	.	.	.	.	.	.	.	.	.	.
1a	-bis	.	.	.	.	.	.	.	.	.	.	.	.	.	.
=71-	=71-	=71-	=71-	=71-	=71-	=71-	=71-	=71-	=71-	=71-	=71-	=71-	=71-	=71-	=71-
00r	.	.	.	.	.	.	.	.	.	.	.	.	.	.	.
.	.	.	.	.	.	.	.	.	.	.	.	.	.	.	.
=72-	=72-	=72-	=72-	=72-	=72-	=72-	=72-	=72-	=72-	=72-	=72-	=72-	=72-	=72-	=72-
.	.	.	.	.	.	.	.	.	.	.	.	.	.	.	.
.	.	.	.	.	.	.	.	.	.	.	.	.	.	.	.
=73-	=73-	=73-	=73-	=73-	=73-	=73-	=73-	=73-	=73-	=73-	=73-	=73-	=73-	=73-	=73-
2cc\	Par-	.	.	.	.	.	.	.	.	.	.	.	.	.	.
2cc\	-ce	.	.	.	.	.	.	.	.	.	.	.	.	.	.
2a\	no-	.	.	.	.	.	.	.	.	.	.	.	.	.	.
2cc\	-bis	.	.	.	.	.	.	.	.	.	.	.	.	.	.
=74-	=74-	=74-	=74-	=74-	=74-	=74-	=74-	=74-	=74-	=74-	=74-	=74-	=74-	=74-	=74-
2.b-\	do-	.	.	.	.	.	.	.	.	.	.	.	.	.	.
4b-\	-mi-	.	.	.	.	.	.	.	.	.	.	.	.	.	.
*custos:a	*	*	*	*	*	*	*	*	*	*	*	*	*	*	*
!LO:SIC:v:l:t=custos "aprae"	!	!	!	!	!	!	!	!	!	!	!	!	!	!	!
1a;<	-ne	.	.	.	.	.	.	.	.	.	.	.	.	.	.
=75-	=75-	=75-	=75-	=75-	=75-	=75-	=75-	=75-	=75-	=75-	=75-	=75-	=75-	=75-	=75-
!LO:PB:g=original	!	!	!	!	!	!	!	!	!	!	!	!	!	!	!
1a	A-	A	Ab	Per	.	.	.	.	.	.	.	.	.	.	.
1a	-prae-	trans-	in-	ſan-	.	.	.	.	.	.	.	.	.	.	.
=76-	=76-	=76-	=76-	=76-	=76-	=76-	=76-	=76-	=76-	=76-	=76-	=76-	=76-	=76-	=76-
1a	-uaricatione manda-	-greſsione vo-	-curſu om-	-ctam converſ[io]nem patris no-	.	.	.	.	.	.	.	.	.	.	.
a	.	.	.	.	.	.	.	.	.	.	.	.	.	.	.
a	.	.	.	.	.	.	.	.	.	.	.	.	.	.	.
a	.	.	.	.	.	.	.	.	.	.	.	.	.	.	.
=77-	=77-	=77-	=77-	=77-	=77-	=77-	=77-	=77-	=77-	=77-	=77-	=77-	=77-	=77-	=77-
1a	t[o-	-t[o-	-ni-	-ſtri	.	.	.	.	.	.	.	.	.	.	.
2g/	-r]um	-ru]m	-u[m]	be-	.	.	.	.	.	.	.	.	.	.	.
2a\	tu-	no-	ma-	-ne-	.	.	.	.	.	.	.	.	.	.	.
=78-	=78-	=78-	=78-	=78-	=78-	=78-	=78-	=78-	=78-	=78-	=78-	=78-	=78-	=78-	=78-
1b-	-o-	-ſtro-	-lo-	-di-	.	.	.	.	.	.	.	.	.	.	.
2a\,	-rum	-rum	-rum	-cti	.	.	.	.	.	.	.	.	.	.	.
1a\	Li-	.	.	.	.	.	.	.	.	.	.	.	.	.	.
=79-	=79-	=79-	=79-	=79-	=79-	=79-	=79-	=79-	=79-	=79-	=79-	=79-	=79-	=79-	=79-
.	.	.	.	.	.	.	.	.	.	.	.	.	.	.	.
2cc\	-be-	.	.	.	.	.	.	.	.	.	.	.	.	.	.
2b-\	-ra	.	.	.	.	.	.	.	.	.	.	.	.	.	.
2a\	nos	.	.	.	.	.	.	.	.	.	.	.	.	.	.
=80-	=80-	=80-	=80-	=80-	=80-	=80-	=80-	=80-	=80-	=80-	=80-	=80-	=80-	=80-	=80-
2.g/	do-	.	.	.	.	.	.	.	.	.	.	.	.	.	.
4g/	-mi-	.	.	.	.	.	.	.	.	.	.	.	.	.	.
*custos:cc	*	*	*	*	*	*	*	*	*	*	*	*	*	*	*
!LO:TX:t=P:problem=kreska pseudotaktowa	!	!	!	!	!	!	!	!	!	!	!	!	!	!	!
1a;<	-ne	.	.	.	.	.	.	.	.	.	.	.	.	.	.
=81-	=81-	=81-	=81-	=81-	=81-	=81-	=81-	=81-	=81-	=81-	=81-	=81-	=81-	=81-	=81-
!LO:LB:g=original	!	!	!	!	!	!	!	!	!	!	!	!	!	!	!
!LO:TX:t=Chorus	!	!	!	!	!	!	!	!	!	!	!	!	!	!	!
2cc\	Li-	.	.	.	.	.	.	.	.	.	.	.	.	.	.
2cc\	-be-	.	.	.	.	.	.	.	.	.	.	.	.	.	.
2a\	-ra	.	.	.	.	.	.	.	.	.	.	.	.	.	.
4b-\	nos	.	.	.	.	.	.	.	.	.	.	.	.	.	.
4a\	.	.	.	.	.	.	.	.	.	.	.	.	.	.	.
=82-	=82-	=82-	=82-	=82-	=82-	=82-	=82-	=82-	=82-	=82-	=82-	=82-	=82-	=82-	=82-
4g/	do-	.	.	.	.	.	.	.	.	.	.	.	.	.	.
4f/	.	.	.	.	.	.	.	.	.	.	.	.	.	.	.
2g/	-mi-	.	.	.	.	.	.	.	.	.	.	.	.	.	.
1a,	-n[e]	.	.	.	.	.	.	.	.	.	.	.	.	.	.
=83-	=83-	=83-	=83-	=83-	=83-	=83-	=83-	=83-	=83-	=83-	=83-	=83-	=83-	=83-	=83-
2.a\	Pec-	.	.	.	.	.	.	.	.	.	.	.	.	.	.
4b-\	.	.	.	.	.	.	.	.	.	.	.	.	.	.	.
1cc	-ca-	.	.	.	.	.	.	.	.	.	.	.	.	.	.
=84-	=84-	=84-	=84-	=84-	=84-	=84-	=84-	=84-	=84-	=84-	=84-	=84-	=84-	=84-	=84-
1b-	-to-	.	.	.	.	.	.	.	.	.	.	.	.	.	.
2cc\,	res,	.	.	.	.	.	.	.	.	.	.	.	.	.	.
1a\	Te	.	.	.	.	.	.	.	.	.	.	.	.	.	.
=85-	=85-	=85-	=85-	=85-	=85-	=85-	=85-	=85-	=85-	=85-	=85-	=85-	=85-	=85-	=85-
.	.	.	.	.	.	.	.	.	.	.	.	.	.	.	.
2g/	ro-	.	.	.	.	.	.	.	.	.	.	.	.	.	.
2g/	-ga-	.	.	.	.	.	.	.	.	.	.	.	.	.	.
2cc\	-mus	.	.	.	.	.	.	.	.	.	.	.	.	.	.
=86-	=86-	=86-	=86-	=86-	=86-	=86-	=86-	=86-	=86-	=86-	=86-	=86-	=86-	=86-	=86-
2b-\	au-	.	.	.	.	.	.	.	.	.	.	.	.	.	.
2g/	-di	.	.	.	.	.	.	.	.	.	.	.	.	.	.
*custos:a	*	*	*	*	*	*	*	*	*	*	*	*	*	*	*
1a;<	nos,	.	.	.	.	.	.	.	.	.	.	.	.	.	.
=87-	=87-	=87-	=87-	=87-	=87-	=87-	=87-	=87-	=87-	=87-	=87-	=87-	=87-	=87-	=87-
!LO:LB:g=original	!	!	!	!	!	!	!	!	!	!	!	!	!	!	!
1a	Vt	Vt	Vt	Vt	Vt	Vt	Vt	.	.	.	.	.	.	.	.
1a	per-	per-	ve-	diſ-	con-	or-	p[e]r-	.	.	.	.	.	.	.	.
=88-	=88-	=88-	=88-	=88-	=88-	=88-	=88-	=88-	=88-	=88-	=88-	=88-	=88-	=88-	=88-
1a	-fectum amorem tuum effundere et in nobis con-	-fectam mortificationem ſensuum et propriae voluntati[s] noſtre nobis	-ram conuerſionem morum ſecundum regulam S[ancti] B[enedicti] n[ob]is	-ciplinam monaſticam in nobis augere et con-	-tinuu[m in] uirtutum acuiſicione profectum nobis con-	-di[ne]m noſtrum amplificare et	-ſeuerantiam in tuo ſancto seruitio nobis	.	.	.	.	.	.	.	.
a	.	.	.	.	.	.	.	.	.	.	.	.	.	.	.
a	.	.	.	.	.	.	.	.	.	.	.	.	.	.	.
a	.	.	.	.	.	.	.	.	.	.	.	.	.	.	.
a	.	.	.	.	.	.	.	.	.	.	.	.	.	.	.
a	.	.	.	.	.	.	.	.	.	.	.	.	.	.	.
a	.	.	.	.	.	.	.	.	.	.	.	.	.	.	.
a	.	.	.	.	.	.	.	.	.	.	.	.	.	.	.
a	.	.	.	.	.	.	.	.	.	.	.	.	.	.	.
a	.	.	.	.	.	.	.	.	.	.	.	.	.	.	.
a	.	.	.	.	.	.	.	.	.	.	.	.	.	.	.
a	.	.	.	.	.	.	.	.	.	.	.	.	.	.	.
=89-	=89-	=89-	=89-	=89-	=89-	=89-	=89-	=89-	=89-	=89-	=89-	=89-	=89-	=89-	=89-
2b-\	-ſe-	do-	lar-	-ſe-	-ce-	tu-	do-	.	.	.	.	.	.	.	.
2cc\	-ru-	-na-	-gi-	ru-	-de-	-e-	-na-	.	.	.	.	.	.	.	.
2b-\	-a-	-re	-ri	-a-	-re	-ri	-re	.	.	.	.	.	.	.	.
2g/	-re	di-	di-	-[r]e	di-	di-	di-	.	.	.	.	.	.	.	.
=90-	=90-	=90-	=90-	=90-	=90-	=90-	=90-	=90-	=90-	=90-	=90-	=90-	=90-	=90-	=90-
2.a\	di-	-gne-	-gne-	di-	-gne-	-gne-	-gne-	.	.	.	.	.	.	.	.
4b-\	-gne-	.	.	-gne-	.	.	.	.	.	.	.	.	.	.	.
1cc	-ris	-ris	-ris	-ris;	-ris	-ris.	-ris	.	.	.	.	.	.	.	.
=91-	=91-	=91-	=91-	=91-	=91-	=91-	=91-	=91-	=91-	=91-	=91-	=91-	=91-	=91-	=91-
00r	.	.	.	.	.	.	.	.	.	.	.	.	.	.	.
.	.	.	.	.	.	.	.	.	.	.	.	.	.	.	.
=92-	=92-	=92-	=92-	=92-	=92-	=92-	=92-	=92-	=92-	=92-	=92-	=92-	=92-	=92-	=92-
.	.	.	.	.	.	.	.	.	.	.	.	.	.	.	.
.	.	.	.	.	.	.	.	.	.	.	.	.	.	.	.
=93-	=93-	=93-	=93-	=93-	=93-	=93-	=93-	=93-	=93-	=93-	=93-	=93-	=93-	=93-	=93-
!LO:PB:g=original	!	!	!	!	!	!	!	!	!	!	!	!	!	!	!
2.a\	Pa-	.	.	.	.	.	.	.	.	.	.	.	.	.	.
4b-\	.	.	.	.	.	.	.	.	.	.	.	.	.	.	.
1cc	-ter	.	.	.	.	.	.	.	.	.	.	.	.	.	.
=94-	=94-	=94-	=94-	=94-	=94-	=94-	=94-	=94-	=94-	=94-	=94-	=94-	=94-	=94-	=94-
2.b-\	de-	.	.	.	.	.	.	.	.	.	.	.	.	.	.
8a\L	.	.	.	.	.	.	.	.	.	.	.	.	.	.	.
8g\J	.	.	.	.	.	.	.	.	.	.	.	.	.	.	.
1a	.	.	.	.	.	.	.	.	.	.	.	.	.	.	.
=95-	=95-	=95-	=95-	=95-	=95-	=95-	=95-	=95-	=95-	=95-	=95-	=95-	=95-	=95-	=95-
2b-,\	-us	.	.	.	.	.	.	.	.	.	.	.	.	.	.
2cc\	pi-	.	.	.	.	.	.	.	.	.	.	.	.	.	.
2.a\	-iſ-	.	.	.	.	.	.	.	.	.	.	.	.	.	.
4a\	-si-	.	.	.	.	.	.	.	.	.	.	.	.	.	.
=96-	=96-	=96-	=96-	=96-	=96-	=96-	=96-	=96-	=96-	=96-	=96-	=96-	=96-	=96-	=96-
2cc,\	-me,	.	.	.	.	.	.	.	.	.	.	.	.	.	.
1a	Te	.	.	.	.	.	.	.	.	.	.	.	.	.	.
2g/	ro-	.	.	.	.	.	.	.	.	.	.	.	.	.	.
=97-	=97-	=97-	=97-	=97-	=97-	=97-	=97-	=97-	=97-	=97-	=97-	=97-	=97-	=97-	=97-
2a\	-ga-	.	.	.	.	.	.	.	.	.	.	.	.	.	.
2cc\	-[m]us	.	.	.	.	.	.	.	.	.	.	.	.	.	.
!LO:TX:t=P:problem=# below	!	!	!	!	!	!	!	!	!	!	!	!	!	!	!
!LO:N:acc=#	!	!	!	!	!	!	!	!	!	!	!	!	!	!	!
2.bn\	au-	.	.	.	.	.	.	.	.	.	.	.	.	.	.
4b\	-di	.	.	.	.	.	.	.	.	.	.	.	.	.	.
=98-	=98-	=98-	=98-	=98-	=98-	=98-	=98-	=98-	=98-	=98-	=98-	=98-	=98-	=98-	=98-
!LO:TX:t=P:problem=kreska pseudotaktowa	!	!	!	!	!	!	!	!	!	!	!	!	!	!	!
1cc;<	nos,	.	.	.	.	.	.	.	.	.	.	.	.	.	.
1cc	Fi-	.	.	.	.	.	.	.	.	.	.	.	.	.	.
=99-	=99-	=99-	=99-	=99-	=99-	=99-	=99-	=99-	=99-	=99-	=99-	=99-	=99-	=99-	=99-
2cc\	-li	.	.	.	.	.	.	.	.	.	.	.	.	.	.
2g/	de-	.	.	.	.	.	.	.	.	.	.	.	.	.	.
2dd\	-i	.	.	.	.	.	.	.	.	.	.	.	.	.	.
*custos:a	*	*	*	*	*	*	*	*	*	*	*	*	*	*	*
2cc\	dul-	.	.	.	.	.	.	.	.	.	.	.	.	.	.
=100-	=100-	=100-	=100-	=100-	=100-	=100-	=100-	=100-	=100-	=100-	=100-	=100-	=100-	=100-	=100-
!LO:LB:g=original	!	!	!	!	!	!	!	!	!	!	!	!	!	!	!
2.a\	-ciſ-	.	.	.	.	.	.	.	.	.	.	.	.	.	.
4a\	-si-	.	.	.	.	.	.	.	.	.	.	.	.	.	.
2b-,\	-me,	.	.	.	.	.	.	.	.	.	.	.	.	.	.
1a\	Te	.	.	.	.	.	.	.	.	.	.	.	.	.	.
=101-	=101-	=101-	=101-	=101-	=101-	=101-	=101-	=101-	=101-	=101-	=101-	=101-	=101-	=101-	=101-
2g/	ro-	.	.	.	.	.	.	.	.	.	.	.	.	.	.
2g/	-ga-	.	.	.	.	.	.	.	.	.	.	.	.	.	.
2g/	-mus	.	.	.	.	.	.	.	.	.	.	.	.	.	.
=102-	=102-	=102-	=102-	=102-	=102-	=102-	=102-	=102-	=102-	=102-	=102-	=102-	=102-	=102-	=102-
2g/	au-	.	.	.	.	.	.	.	.	.	.	.	.	.	.
2g/	-di	.	.	.	.	.	.	.	.	.	.	.	.	.	.
!LO:TX:t=P:problem=kreska pseudotaktowa	!	!	!	!	!	!	!	!	!	!	!	!	!	!	!
1g;	nos	.	.	.	.	.	.	.	.	.	.	.	.	.	.
=103-	=103-	=103-	=103-	=103-	=103-	=103-	=103-	=103-	=103-	=103-	=103-	=103-	=103-	=103-	=103-
2r	.	.	.	.	.	.	.	.	.	.	.	.	.	.	.
2.cc\	Spi-	.	.	.	.	.	.	.	.	.	.	.	.	.	.
4cc\	-ri-	.	.	.	.	.	.	.	.	.	.	.	.	.	.
2g/	-tus	.	.	.	.	.	.	.	.	.	.	.	.	.	.
=104-	=104-	=104-	=104-	=104-	=104-	=104-	=104-	=104-	=104-	=104-	=104-	=104-	=104-	=104-	=104-
2g/	ſan-	.	.	.	.	.	.	.	.	.	.	.	.	.	.
2g/	-cte	.	.	.	.	.	.	.	.	.	.	.	.	.	.
1g	d[e]-	.	.	.	.	.	.	.	.	.	.	.	.	.	.
=105-	=105-	=105-	=105-	=105-	=105-	=105-	=105-	=105-	=105-	=105-	=105-	=105-	=105-	=105-	=105-
2g/	-us	.	.	.	.	.	.	.	.	.	.	.	.	.	.
2.a\	be-	.	.	.	.	.	.	.	.	.	.	.	.	.	.
4b-\	.	.	.	.	.	.	.	.	.	.	.	.	.	.	.
2cc\	-ni-	.	.	.	.	.	.	.	.	.	.	.	.	.	.
=106-	=106-	=106-	=106-	=106-	=106-	=106-	=106-	=106-	=106-	=106-	=106-	=106-	=106-	=106-	=106-
2.b-\	-gniſ-	.	.	.	.	.	.	.	.	.	.	.	.	.	.
4b-\	-si-	.	.	.	.	.	.	.	.	.	.	.	.	.	.
*custos:cc	*	*	*	*	*	*	*	*	*	*	*	*	*	*	*
1cc	-me	.	.	.	.	.	.	.	.	.	.	.	.	.	.
=107-	=107-	=107-	=107-	=107-	=107-	=107-	=107-	=107-	=107-	=107-	=107-	=107-	=107-	=107-	=107-
!LO:LB:g=original	!	!	!	!	!	!	!	!	!	!	!	!	!	!	!
1.cc	Mi-	.	.	.	.	.	.	.	.	.	.	.	.	.	.
2g/	-ſe-	.	.	.	.	.	.	.	.	.	.	.	.	.	.
=108-	=108-	=108-	=108-	=108-	=108-	=108-	=108-	=108-	=108-	=108-	=108-	=108-	=108-	=108-	=108-
1a	-re-	.	.	.	.	.	.	.	.	.	.	.	.	.	.
1cc	-re	.	.	.	.	.	.	.	.	.	.	.	.	.	.
=109-	=109-	=109-	=109-	=109-	=109-	=109-	=109-	=109-	=109-	=109-	=109-	=109-	=109-	=109-	=109-
1dd	no-	.	.	.	.	.	.	.	.	.	.	.	.	.	.
!LO:TX:t=P:problem=kreska pseudotaktowa	!	!	!	!	!	!	!	!	!	!	!	!	!	!	!
1cc;<	-bis,	.	.	.	.	.	.	.	.	.	.	.	.	.	.
=110-	=110-	=110-	=110-	=110-	=110-	=110-	=110-	=110-	=110-	=110-	=110-	=110-	=110-	=110-	=110-
00r	.	.	.	.	.	.	.	.	.	.	.	.	.	.	.
.	.	.	.	.	.	.	.	.	.	.	.	.	.	.	.
=111-	=111-	=111-	=111-	=111-	=111-	=111-	=111-	=111-	=111-	=111-	=111-	=111-	=111-	=111-	=111-
.	.	.	.	.	.	.	.	.	.	.	.	.	.	.	.
.	.	.	.	.	.	.	.	.	.	.	.	.	.	.	.
=112-	=112-	=112-	=112-	=112-	=112-	=112-	=112-	=112-	=112-	=112-	=112-	=112-	=112-	=112-	=112-
1r	.	.	.	.	.	.	.	.	.	.	.	.	.	.	.
1cc	Chri-	.	.	.	.	.	.	.	.	.	.	.	.	.	.
=113-	=113-	=113-	=113-	=113-	=113-	=113-	=113-	=113-	=113-	=113-	=113-	=113-	=113-	=113-	=113-
2b-\	-ſte	.	.	.	.	.	.	.	.	.	.	.	.	.	.
2cc\	[e]x-	.	.	.	.	.	.	.	.	.	.	.	.	.	.
2b-\	-au-	.	.	.	.	.	.	.	.	.	.	.	.	.	.
2g/	-di	.	.	.	.	.	.	.	.	.	.	.	.	.	.
=114-	=114-	=114-	=114-	=114-	=114-	=114-	=114-	=114-	=114-	=114-	=114-	=114-	=114-	=114-	=114-
1a;<	nos,	.	.	.	.	.	.	.	.	.	.	.	.	.	.
00r	.	.	.	.	.	.	.	.	.	.	.	.	.	.	.
=115-	=115-	=115-	=115-	=115-	=115-	=115-	=115-	=115-	=115-	=115-	=115-	=115-	=115-	=115-	=115-
.	.	.	.	.	.	.	.	.	.	.	.	.	.	.	.
.	.	.	.	.	.	.	.	.	.	.	.	.	.	.	.
=116-	=116-	=116-	=116-	=116-	=116-	=116-	=116-	=116-	=116-	=116-	=116-	=116-	=116-	=116-	=116-
.	.	.	.	.	.	.	.	.	.	.	.	.	.	.	.
0r	.	.	.	.	.	.	.	.	.	.	.	.	.	.	.
=117-	=117-	=117-	=117-	=117-	=117-	=117-	=117-	=117-	=117-	=117-	=117-	=117-	=117-	=117-	=117-
.	.	.	.	.	.	.	.	.	.	.	.	.	.	.	.
1r	.	.	.	.	.	.	.	.	.	.	.	.	.	.	.
=118-	=118-	=118-	=118-	=118-	=118-	=118-	=118-	=118-	=118-	=118-	=118-	=118-	=118-	=118-	=118-
1a	Chri-	.	.	.	.	.	.	.	.	.	.	.	.	.	.
2b-\	-ſte	.	.	.	.	.	.	.	.	.	.	.	.	.	.
2cc\	e-	.	.	.	.	.	.	.	.	.	.	.	.	.	.
=119-	=119-	=119-	=119-	=119-	=119-	=119-	=119-	=119-	=119-	=119-	=119-	=119-	=119-	=119-	=119-
2g/	-leÿ-	.	.	.	.	.	.	.	.	.	.	.	.	.	.
2a\	-ſon,	.	.	.	.	.	.	.	.	.	.	.	.	.	.
2r	.	.	.	.	.	.	.	.	.	.	.	.	.	.	.
2a\	Chri-	.	.	.	.	.	.	.	.	.	.	.	.	.	.
=120-	=120-	=120-	=120-	=120-	=120-	=120-	=120-	=120-	=120-	=120-	=120-	=120-	=120-	=120-	=120-
2g/	-ſte	.	.	.	.	.	.	.	.	.	.	.	.	.	.
*custos:b-	*	*	*	*	*	*	*	*	*	*	*	*	*	*	*
2a\	e-	.	.	.	.	.	.	.	.	.	.	.	.	.	.
!LO:LB:g=original	!	!	!	!	!	!	!	!	!	!	!	!	!	!	!
1b-	-le[ÿ]-	.	.	.	.	.	.	.	.	.	.	.	.	.	.
=121-	=121-	=121-	=121-	=121-	=121-	=121-	=121-	=121-	=121-	=121-	=121-	=121-	=121-	=121-	=121-
2a\	-ſon	.	.	.	.	.	.	.	.	.	.	.	.	.	.
2cc\	e-	.	.	.	.	.	.	.	.	.	.	.	.	.	.
1cc	-leÿ-	.	.	.	.	.	.	.	.	.	.	.	.	.	.
=122-	=122-	=122-	=122-	=122-	=122-	=122-	=122-	=122-	=122-	=122-	=122-	=122-	=122-	=122-	=122-
!LO:TX:t=P:problem=kreska pseudotaktowa	!	!	!	!	!	!	!	!	!	!	!	!	!	!	!
1a;<	-ſon,	.	.	.	.	.	.	.	.	.	.	.	.	.	.
1.cc	Ki-	.	.	.	.	.	.	.	.	.	.	.	.	.	.
=123-	=123-	=123-	=123-	=123-	=123-	=123-	=123-	=123-	=123-	=123-	=123-	=123-	=123-	=123-	=123-
.	.	.	.	.	.	.	.	.	.	.	.	.	.	.	.
2cc\	-[r]i-	.	.	.	.	.	.	.	.	.	.	.	.	.	.
*lig	*	*	*	*	*	*	*	*	*	*	*	*	*	*	*
1b-	-e	.	.	.	.	.	.	.	.	.	.	.	.	.	.
=124-	=124-	=124-	=124-	=124-	=124-	=124-	=124-	=124-	=124-	=124-	=124-	=124-	=124-	=124-	=124-
1cc	.	.	.	.	.	.	.	.	.	.	.	.	.	.	.
*Xlig	*	*	*	*	*	*	*	*	*	*	*	*	*	*	*
1.cc	e-	.	.	.	.	.	.	.	.	.	.	.	.	.	.
=125-	=125-	=125-	=125-	=125-	=125-	=125-	=125-	=125-	=125-	=125-	=125-	=125-	=125-	=125-	=125-
.	.	.	.	.	.	.	.	.	.	.	.	.	.	.	.
2g/	-le[ÿ]-	.	.	.	.	.	.	.	.	.	.	.	.	.	.
2a,\	-ſon	.	.	.	.	.	.	.	.	.	.	.	.	.	.
2a\	e-	.	.	.	.	.	.	.	.	.	.	.	.	.	.
=126-	=126-	=126-	=126-	=126-	=126-	=126-	=126-	=126-	=126-	=126-	=126-	=126-	=126-	=126-	=126-
0.b-	-leÿ-	.	.	.	.	.	.	.	.	.	.	.	.	.	.
=127-	=127-	=127-	=127-	=127-	=127-	=127-	=127-	=127-	=127-	=127-	=127-	=127-	=127-	=127-	=127-
.	.	.	.	.	.	.	.	.	.	.	.	.	.	.	.
!LO:TX:t=Lytania de SS\nAngelis.	!	!	!	!	!	!	!	!	!	!	!	!	!	!	!
!LO:N:vis=00	!	!	!	!	!	!	!	!	!	!	!	!	!	!	!
1a	-ſon;	.	.	.	.	.	.	.	.	.	.	.	.	.	.
==	==	==	==	==	==	==	==	==	==	==	==	==	==	==	==
*-	*-	*-	*-	*-	*-	*-	*-	*-	*-	*-	*-	*-	*-	*-	*-
!!!RDF**kern: > = above
!!!RDF**kern: < = below
!!!ENC: Katarzyna Serwa
!!!END: 2021-11-29
!!!ENC: Andrzej Gręziak
!!!END: 2021-10-30
!!!YEC: Copyright 2022 Narodowy Instytut Fryderyka Chopina (https://polishscores.org)
!!!YEM: Licence CC BY 4.0 (https://creativecommons.org/licenses/by/4.0)
